svg/tray_full.svg

<svg xmlns="http://www.w3.org/2000/svg" viewBox="0 0 24 24"><path d="M18 5H6v2h12M6 9h12v2H6m-4 1h2v5h16v-5h2v5a2 2 0 0 1-2 2H4a2 2 0 0 1-2-2m16-4H6v2h12Z"/></svg>

<?xml version="1.0" encoding="UTF-8"?><!DOCTYPE svg PUBLIC "-//W3C//DTD SVG 1.1//EN" "http://www.w3.org/Graphics/SVG/1.1/DTD/svg11.dtd"><svg xmlns="http://www.w3.org/2000/svg" xmlns:xlink="http://www.w3.org/1999/xlink" version="1.1" id="mdi-tray-full" width="24" height="24" viewBox="0 0 24 24"><path d="M18 5H6V7H18M6 9H18V11H6M2 12H4V17H20V12H22V17A2 2 0 0 1 20 19H4A2 2 0 0 1 2 17M18 13H6V15H18Z" /></svg>
